X:1
T: The Top Of Cork Road
C:
R:Jig
Q:180
K:D
M:6/8
L:1/16
A2|:d2A2F2 D2F2A2|B2e2d2 c2B2A2|d2c2d2 e2f2g2|f2d2f2 e2c2A2|
d2A2F2 D2F2A2|B2e2d2 c2B2A2|d2c2d2 e2f2g2|1f2d2d2 d4A2:|2f2d2d2 d4f2|
|:f2d2f2 f2g2a2|e2c2e2 e2f2g2|d2c2d2 B2e2d2|c2A2A2 A4dc|
B2G2B2 B2c2d2|A2F2D2 D2F2A2|d2c2d2 e2f2g2|1f2d2d2 d4f2:|2f2d2d2 d4||
